X: 33
T:Auvergne Polka 2
M:2/2
L:1/4
R:Polka
Z:Steve Mansfield March 2001
K:G
|: DE/F/ GG | F/G/A/F/ G2 | A/B/c/A/ BG | A/B/c/A/ BG |\
   DE/F/ GG | F/G/A/F/ G2 | A/B/c/A/ Bd | d/c/B/A/ G2 :|
|: dB G/B/d/B/ | G/B/d/B/ Ac | cA F/A/c/A/ | F/A/c/A/ BG |\
   dB G/B/d/B/ | G/B/d/B/ Ac | cA F/A/c/A/ | F/D/E/F/ G2 :|

which is AFAIKT where this cracking tune came into wide circulation this
side of La Manche - and Blowzabella obviously don't know what, if
anything, it was called either :-)

